X:1
T:A minor                 Jeremiah Ingalls, 1805
T:Robert Robinson, 1758 Amend. Martin Madan, 1760 87. 87. 87. 87.
T:Melodious Sonnet
T:Transcribed from Ingalls' Christian Harmony, 1805.
%%score [ 1 2 3 ]
L:1/8
Q:1/4=100
M:4/4
K:C
V:1 treble nm="Tr." snm="Tr."
V:2 treble-8 nm="T." snm="T."
V:3 bass nm="B." snm="B."
V:1
"^1. Come, thou fount of every blessing,   Tune my heart to sing Thy grace!    Streams of mercy,  ne–ver  cea–sing,    Call   for    songs    of    lou– dest  praise.\n2. Here I  raise  my E– be – ne – zer,    Hi–ther by thy  help  I've  come;     And  I   hope,  by  thy  good  pleasure,    Safe – ly    to        ar – rive   at    home." A2 e2 fd e2 | %1
 c2 A2 B2 ^G2 || c2 e2 fd e2 | c2 BA B4 || e/d/ c2 A B4 | e/d/ c2 A B4 || AB cd ed cA | e2 E2 A4- | %8
 A4 z4 |: %9
"^1. Teach  me  some  melodious  sonnet,   Sung  by  flaming  tongues  a–bove;       Praise the mount, O fix me  on   it,       Mount  of  God's  un–chan–ging   love.\n2. Je–sus  sought  me, when a stranger,   Wan–dering from the fold  of   God,        He,   to  rescue  me  from  danger,        In–ter–posed  with  pre–cious  blood." c2 c2 e2 c2 | %10
 f2 d2 e2 e2 || cB cd e2 c2 | f2 ed e4- | e4 E3 E | E3 E c2 c2 | B B3 c3 A | B B3 ed cB | A8 :| %18
V:2
"^3. O!  to  grace,  how great a   debtor    Dai– ly  I'm  con–strained to be!      Let  that grace,  Lord, like a  fetter,    Bind   my   wandering    heart  to  thee." A2 ^G2 A2 B2 | %1
 e2 d2 e2 B2 || A2 ^G2 A2 B2 | e2 ^d2 e4 || c/B/ A2 c d4 | c/B/ A2 c d4 || cd ef gf ed | %7
 cA B2 A4- | A4 z4 |: %9
"^3. Prone  to  wander,  Lord,  I  feel  it,      Prone  to  leave  the  God  I   love;      Here's  my  heart,  O  take  and  seal   it,   Seal   it   from  thy  courts  a –  bove!" e2 e2 ^g2 e2 | %10
 a2 a2 ^g2 e2 || ed ef g2 e2 | a2 bg a4- | a4 B3 c | A3 A G2 G2 | B/c/ d3 a3 a | ^g e3 c2 A2 | %17
 A8 :| %18
V:3
 A,2 E,2 D,2 E,2 | C,2 D,2 E,2 E,2 || A,2 E,2 D,2 E,2 | A,2 B,2 E,4 || C, C,2 C, G,4 | %5
 C, C,2 C, G,4 || A,2 A,2 E,D, C,D, | E,2 E,2 A,,4- | A,,4 z4 |: %9
"^__________________________________________________________________\nA folk hymn (Jackson 1952 no. 194).\nEdited by B. C. Johnston, 2017: Measures 12-13, Bass: notes moved down an octave." A,2 A,2 E,2 E,2 | %10
 D,2 D,2 E,2 E,2 || A,,2 A,,2 C,2 C,2 | D,2 E,2 A,,4- | A,,4 E,3 E, | A,,3 A,, C,2 C,2 | %15
 G, G,3 A,3 A, | E, E,3 C,D, E,2 | A,,8 :| %18

